svgs/light/toilet-portable.svg

<svg xmlns="http://www.w3.org/2000/svg" viewBox="0 0 320 512"><!--! Font Awesome Pro 6.4.0 by @fontawesome - https://fontawesome.com License - https://fontawesome.com/license (Commercial License) Copyright 2023 Fonticons, Inc. --><path d="M32 64V96H288V64c0-17.7-14.3-32-32-32H64C46.3 32 32 46.3 32 64zm0 64V448H288V336H264c-22.1 0-40-17.9-40-40V248c0-22.1 17.9-40 40-40h24V128H32zM320 64V208v32 64 32V496c0 8.8-7.2 16-16 16s-16-7.2-16-16V480H32v16c0 8.8-7.2 16-16 16s-16-7.2-16-16V64C0 28.7 28.7 0 64 0H256c35.3 0 64 28.7 64 64zM264 240c-4.4 0-8 3.6-8 8v48c0 4.4 3.6 8 8 8h24V240H264z"/></svg>

<svg xmlns="http://www.w3.org/2000/svg" viewBox="0 0 320 512"><!--! Font Awesome Pro 6.3.0 by @fontawesome - https://fontawesome.com License - https://fontawesome.com/license (Commercial License) Copyright 2023 Fonticons, Inc. --><path d="M320 64V496C320 504.8 312.8 512 304 512C295.2 512 288 504.8 288 496V480H32V496C32 504.8 24.84 512 16 512C7.164 512 0 504.8 0 496V64C0 28.65 28.65 0 64 0H256C291.3 0 320 28.65 320 64zM32 96H288V64C288 46.33 273.7 32 256 32H64C46.33 32 32 46.33 32 64V96zM32 128V448H288V336H264C241.9 336 224 318.1 224 296V248C224 225.9 241.9 208 264 208H288V128H32zM256 248V296C256 300.4 259.6 304 264 304H288V240H264C259.6 240 256 243.6 256 248z"/></svg>
